assets/trademark/google-hangouts.svg

<svg enable-background="new 0 0 24 24" height="512" viewBox="0 0 24 24" width="512" xmlns="http://www.w3.org/2000/svg">
    <path d="m22.5 10.5c0-5.8-4.7-10.5-10.5-10.5s-10.5 4.7-10.5 10.5c0 5.5 5 10 10.5 10v3.5c6.35-3.1 10.5-8.2 10.5-13.5zm-9.5-3h4.5v4.5c0 1.4-.9 2.5-2 2.5v-2.5h-2.5zm-1.5 4.5c0 1.4-.9 2.5-2 2.5v-2.5h-2.5v-4.5h4.5z"
          fill="#4caf50"/>
</svg>

<svg xmlns="http://www.w3.org/2000/svg" width="512" height="512" viewBox="0 0 24 24"><path fill="#4caf50" d="M22.5 10.5C22.5 4.7 17.8 0 12 0S1.5 4.7 1.5 10.5c0 5.5 5 10 10.5 10V24c6.35-3.1 10.5-8.2 10.5-13.5m-9.5-3h4.5V12c0 1.4-.9 2.5-2 2.5V12H13zM11.5 12c0 1.4-.9 2.5-2 2.5V12H7V7.5h4.5z"/></svg>
